static/images/mobile/copyright/wikipedia-wordmark-lo.svg

<?xml version="1.0" encoding="UTF-8"?>
<svg width="120px" height="32px" viewBox="0 0 120 32" version="1.1" xmlns="http://www.w3.org/2000/svg" xmlns:xlink="http://www.w3.org/1999/xlink">
    <title>lo-wordmark</title>
    <g id="Page-1" stroke="none" stroke-width="1" fill="none" fill-rule="evenodd">
        <path d="M4.22957466,25.377423 C3.53814518,25.3774485 3.19243325,25.7231438 3.19243759,26.41456 C3.19243325,27.1060018 3.53814518,27.4517226 4.22957466,27.4516971 C4.92099316,27.4517226 5.26670535,27.1060018 5.26671173,26.41456 C5.26670535,25.7231438 4.92099316,25.3774485 4.22957466,25.377423 M0.988521446,17.8906081 C1.43146258,14.1633991 4.14314113,12.2997947 9.12356524,12.2997947 C14.525305,12.2997947 17.2261986,13.9041212 17.2261986,17.1127489 L17.2261986,26.5766215 C17.2261986,29.7420532 14.6441435,31.3247562 9.48008127,31.3247562 C6.71437433,31.3247562 4.53746894,30.9034424 2.9493587,30.0607638 C1.37204337,29.2072861 0.583389793,28.0080876 0.583389793,26.4631938 C0.583389793,24.1944612 1.8203886,23.0600822 4.29439592,23.0600822 C6.68196383,23.0600822 7.8757506,24.2214715 7.87575979,26.5442245 C7.8757506,27.2032437 7.5030297,27.9270569 6.75759633,28.7157151 C7.02767576,28.8021581 7.93516981,28.845354 9.48008127,28.845354 C12.5698715,28.845354 14.114772,27.678578 14.1147874,25.345026 L14.1147874,18.020247 C14.114772,15.8163339 12.4510331,14.7143774 9.12356524,14.7143774 C5.9365223,14.7143774 4.21336392,15.8649677 3.95408527,18.1660972 L0.988521446,17.8906081 M3.07900071,5.42875199 C3.0790173,7.44903118 4.66173034,8.459158 7.82714391,8.45913248 L7.82714391,10.5010096 C2.60906516,10.5010096 0,8.77786863 0,5.33151001 C0,1.89602698 2.97098247,0.178247164 8.91289686,0.178247164 C14.4875138,0.178247164 17.2748144,1.89602698 17.2748144,5.33151001 C17.2748144,8.77786863 14.8494311,10.5010096 9.99864981,10.5010096 L9.99864981,8.45913248 C12.7751591,8.459158 14.1742123,7.44903118 14.1958138,5.42875199 C14.1958193,3.30048289 12.4348487,2.23633558 8.91289686,2.23631005 C5.0236474,2.23633558 3.0790173,3.30048289 3.07900071,5.42875199 M25.5557059,26.9979608 C24.8750795,26.9979608 24.5347691,27.3436817 24.5347739,28.0350979 C24.5347691,28.7265141 24.8750795,29.0722349 25.5557059,29.0722349 C26.2579274,29.0722349 26.6090412,28.7265141 26.6090481,28.0350979 C26.6090412,27.3436817 26.2579274,26.9979608 25.5557059,26.9979608 M25.5557059,14.4388883 C24.8750795,14.4388883 24.5347691,14.7846091 24.5347739,15.4760253 C24.5347691,16.1674671 24.8750795,16.5131624 25.5557059,16.5131624 C26.2579274,16.5131624 26.6090412,16.1674671 26.6090481,15.4760253 C26.6090412,14.7846091 26.2579274,14.4388883 25.5557059,14.4388883 M29.5908173,27.9054589 C29.5908073,30.120171 28.2457714,31.2275398 25.5557059,31.2275398 C23.0708947,31.2275398 21.8284944,30.1417945 21.8284944,27.9702784 C21.8284944,25.7231438 23.4220087,24.5995893 26.6090481,24.5995893 L26.6090481,18.6360448 C26.1444906,18.7224877 25.7933768,18.7657092 25.5557059,18.7656837 C23.0708947,18.7657092 21.8284944,17.5989332 21.8284944,15.2653557 C21.8284944,13.2883235 23.0708947,12.2997947 25.5557059,12.2997947 C27.3706881,12.2997947 28.515859,12.7373452 28.9912223,13.6124209 C29.812279,12.7373452 31.2437429,12.2997947 33.285618,12.2997947 C37.6718255,12.2997947 39.8649562,14.0391724 39.8649562,17.517877 L39.8649562,30.8872312 L36.8831873,30.8872312 L36.8831873,17.517877 C36.8831699,15.6813083 35.6623744,14.7630111 33.220797,14.7629856 C31.7407037,14.7630111 30.5307118,15.5300458 29.5908173,17.0641407 L29.5908173,27.9054589 M25.3450372,5.25050482 C25.3450538,7.27078401 26.9277666,8.28091084 30.0931804,8.28088531 L30.0931804,10.322737 C24.8751017,10.322737 22.2660365,8.59959594 22.2660365,5.15326285 C22.2660365,1.71777981 25.237019,0 31.1789334,0 C36.7535504,0 39.5408509,1.71777981 39.5408509,5.15326285 C39.5408509,8.59959594 37.1154674,10.322737 32.2646861,10.322737 L32.2646861,8.28088531 C35.0411956,8.28091084 36.4402487,7.27078401 36.4618502,5.25050482 C36.4618558,3.12223573 34.7008852,2.05808842 31.1789334,2.05806289 C27.2896839,2.05808842 25.3450538,3.12223573 25.3450372,5.25050482 M47.7245101,15.0384748 C47.335578,15.0385003 47.0654909,15.1249177 46.9142463,15.2977526 C46.762994,15.4706386 46.6873679,15.7299165 46.687373,16.0756118 C46.6873679,16.4753532 46.7737956,16.7508423 46.9466586,16.9020792 C47.1195088,17.0425427 47.3787918,17.1127744 47.7245101,17.1127489 C48.1242336,17.1127744 48.3943207,17.0209447 48.5347739,16.8372598 C48.6860159,16.6536259 48.7616421,16.3997347 48.7616472,16.0756118 C48.7616421,15.675896 48.6752118,15.4058191 48.5023642,15.2653557 C48.3295012,15.1141187 48.0702156,15.0385003 47.7245101,15.0384748 M49.2964218,28.7319263 C51.068189,28.7319263 51.9540763,27.8298405 51.954084,26.0256432 L51.954084,21.0344163 L54.9358537,21.0344163 L54.9358537,26.0418544 C54.9358409,27.8676497 55.8109242,28.7805346 57.5611087,28.7805346 C59.2356338,28.7805346 60.0729053,27.8622374 60.0729232,26.0256432 L60.0729232,12.8183504 L63.0546929,12.8183504 L63.0546929,26.0256432 C63.0546929,29.4503528 61.2018721,31.1627203 57.4962867,31.1627203 C55.8973519,31.1627203 54.5469165,30.762979 53.4449701,29.9635218 C52.3321967,30.762979 50.8035014,31.1627203 48.8588789,31.1627203 C45.3801463,31.1627203 43.6407838,29.4503528 43.6407838,26.0256432 C43.6407838,23.4328133 44.4672487,21.2396992 46.1201886,19.4463009 C44.6401066,19.0465851 43.9000668,17.9932368 43.9000668,16.2862815 C43.9000668,13.6070341 45.142469,12.2673721 47.6272783,12.2673721 C50.1768995,12.2673721 51.4517114,13.4557717 51.4517216,15.8325452 C51.4517114,17.3126196 50.1985052,19.5165327 47.6921004,22.4442844 C46.9790632,23.2761641 46.6225485,24.4699504 46.6225536,26.0256432 C46.6225485,27.8298405 47.5138353,28.7319263 49.2964218,28.7319263 M48.1134371,5.50978271 C48.1134525,7.5300619 49.6961657,8.54018873 52.8615796,8.5401632 L52.8615796,10.5820148 C47.6435024,10.5820148 45.0344357,8.85889935 45.0344357,5.41254074 C45.0344357,1.9770577 48.0054192,0.259277885 53.9473325,0.259277885 C59.52195,0.259277885 62.3092537,1.9770577 62.3092511,5.41254074 C62.3092537,6.69818223 61.9743445,7.74073156 61.3045238,8.5401632 L64.74004,8.5401632 L64.74004,10.5820148 L55.0330855,10.5820148 L55.0330855,8.5401632 C57.8203993,8.54018873 59.2194532,7.5300619 59.2302496,5.50978271 C59.2410588,3.38151362 57.4800882,2.3173663 53.9473325,2.31734078 C50.0580825,2.3173663 48.1134525,3.38151362 48.1134371,5.50978271 M75.3706962,28.2619788 C75.3598819,29.4719763 74.9925631,30.2876192 74.2687371,30.7089585 C73.5448933,31.1410968 72.345705,31.3571787 70.6711671,31.3571787 C68.0567163,31.3571787 66.7494947,29.596203 66.7494947,26.0742514 L66.7494947,15.9945811 C66.7494947,13.5313901 68.0026983,12.2997947 70.5091159,12.2997947 C72.7130239,12.2997947 74.3875669,12.699536 75.5327475,13.4989676 L74.3983786,15.4112059 C73.5340892,14.9250471 72.3673107,14.6819804 70.8980429,14.6819549 C70.1201838,14.6819804 69.7312567,15.1087065 69.7312618,15.9621841 L69.7312618,27.8730364 C69.8500967,27.3220837 70.1201838,26.7980901 70.5415256,26.3011323 C70.9736614,25.7933756 71.6272709,25.5394844 72.5023644,25.5394844 C74.4253787,25.5394844 75.3814876,26.4469825 75.3706962,28.2619788 M72.4537486,29.4125435 C72.8426654,29.4125435 73.107353,29.3261261 73.2478062,29.1532657 C73.3990457,28.9804052 73.4800713,28.7211273 73.4908856,28.3754065 C73.4908754,27.9864896 73.3990457,27.7163872 73.2153939,27.5651503 C73.0425309,27.4139134 72.7886475,27.3382694 72.4537486,27.3382694 C72.0540098,27.3382694 71.7785206,27.4247124 71.6272786,27.5975473 C71.4868279,27.7704077 71.4166038,28.0297111 71.4166115,28.3754065 C71.4057997,28.7643488 71.4868279,29.0344257 71.6596883,29.1856626 C71.8433426,29.3369251 72.1080277,29.4125435 72.4537486,29.4125435 M84.0405137,27.0789915 C83.3490822,27.0789915 83.0033715,27.4247124 83.0033766,28.1161286 C83.0033715,28.8075448 83.3490822,29.1532657 84.0405137,29.1532657 C84.7319299,29.1532657 85.0776431,28.8075448 85.0776508,28.1161286 C85.0776431,27.4247124 84.7319299,27.0789915 84.0405137,27.0789915 M93.8771097,30.8872312 L93.8771097,17.9392163 C93.8770944,15.8001482 92.1107217,14.7305886 88.577989,14.7305631 C85.002017,14.7305886 83.2140386,15.8001482 83.2140437,17.9392163 L83.2140437,24.9398979 C86.2498212,24.9398979 87.767715,25.998633 87.7677252,28.1161286 C87.767715,30.2768202 86.5253129,31.3571787 84.0405137,31.3571787 C81.5016838,31.3571787 80.2322766,30.2768202 80.2322766,28.1161286 L80.2322766,17.517877 C80.2322766,15.3139894 81.0047235,13.8933223 82.5496276,13.255901 C84.1053281,12.6185053 86.1147776,12.2997947 88.577989,12.2997947 C90.8899252,12.2997947 92.8453594,12.6185053 94.4442941,13.255901 C96.0539998,13.8933223 96.8588794,15.3139894 96.8588794,17.517877 L96.8588794,30.8872312 L93.8771097,30.8872312 M107.327482,16.0270036 C107.716399,16.0270036 107.986488,15.9405862 108.137746,15.7677002 C108.288985,15.5948653 108.364609,15.3355874 108.364619,14.9898665 C108.364609,14.6009497 108.272779,14.3362596 108.08913,14.1957961 C107.916264,14.0445592 107.662383,13.963554 107.327482,13.9527295 C106.927743,13.9419305 106.652254,14.0283735 106.501012,14.2120073 C106.360561,14.3848678 106.290337,14.6441712 106.290345,14.9898665 C106.290337,15.3788089 106.376765,15.6488858 106.549628,15.8001227 C106.722478,15.9513851 106.981761,16.0270036 107.327482,16.0270036 M101.31523,26.0094319 C101.31523,24.4645381 102.206613,23.2275559 103.989197,22.2984342 C102.195812,21.1208592 101.304522,19.2680538 101.31523,16.7400178 C101.326128,13.4881942 103.297768,11.8676563 107.23025,11.8784017 C109.607013,11.8892798 110.795398,12.8831954 110.795408,14.8602276 C110.795398,16.9993212 109.601611,18.0796798 107.214044,18.1012777 C105.820385,18.1120767 104.831866,17.3828513 104.24848,15.9135504 C104.270084,17.9554276 104.767044,19.3598835 105.739367,20.1269181 C106.441587,20.6887209 107.570554,20.9048028 109.126267,20.7751384 L109.126267,23.3841795 L106.841323,23.7569106 C105.253203,24.0161885 104.459145,24.7508262 104.45915,25.9608237 C104.459145,27.77582 106.592837,28.7157151 110.86023,28.7805346 C114.965549,28.845354 117.018212,26.468606 117.01823,21.650214 L117.01823,12.3321916 L120,12.3321916 L120,21.650214 C120,28.0027009 116.953393,31.1735193 110.86023,31.1627478 C104.496957,31.1519213 101.31523,29.4341671 101.31523,26.0094319" id="lo-wordmark" fill="#000000" fill-rule="nonzero"></path>
    </g>
</svg>

<svg xmlns="http://www.w3.org/2000/svg" width="120" height="32"><path fill="#000" fill-rule="nonzero" d="M4.23 25.377c-.692 0-1.038.346-1.038 1.038 0 .691.346 1.037 1.038 1.037.691 0 1.037-.346 1.037-1.037 0-.692-.346-1.038-1.037-1.038M.989 17.891C1.43 14.163 4.143 12.3 9.124 12.3c5.401 0 8.102 1.604 8.102 4.813v9.464c0 3.165-2.582 4.748-7.746 4.748-2.766 0-4.943-.422-6.53-1.264-1.578-.854-2.367-2.053-2.367-3.598 0-2.269 1.237-3.403 3.711-3.403 2.388 0 3.582 1.161 3.582 3.484 0 .66-.373 1.383-1.118 2.172.27.086 1.177.13 2.722.13 3.09 0 4.635-1.167 4.635-3.501V18.02c0-2.204-1.664-3.306-4.991-3.306-3.187 0-4.91 1.151-5.17 3.452L.99 17.891m2.09-12.462c0 2.02 1.583 3.03 4.748 3.03v2.042C2.61 10.501 0 8.778 0 5.331 0 1.897 2.971.179 8.913.179c5.575 0 8.362 1.718 8.362 5.154 0 3.446-2.426 5.169-7.276 5.169V8.459c2.776 0 4.175-1.01 4.197-3.03 0-2.129-1.761-3.193-5.283-3.193-3.89 0-5.834 1.064-5.834 3.193m22.477 21.569c-.68 0-1.021.346-1.021 1.037 0 .692.34 1.037 1.02 1.037.703 0 1.054-.345 1.054-1.037 0-.691-.351-1.037-1.053-1.037m0-12.56c-.68 0-1.021.347-1.021 1.038 0 .691.34 1.037 1.02 1.037.703 0 1.054-.346 1.054-1.037s-.351-1.037-1.053-1.037m4.035 13.466c0 2.215-1.345 3.323-4.035 3.323-2.485 0-3.728-1.086-3.728-3.258 0-2.247 1.594-3.37 4.781-3.37v-5.964c-.465.086-.816.13-1.053.13-2.485 0-3.728-1.167-3.728-3.5 0-1.978 1.243-2.966 3.728-2.966 1.815 0 2.96.437 3.435 1.312.821-.875 2.253-1.312 4.295-1.312 4.386 0 6.579 1.74 6.579 5.218v13.37h-2.982v-13.37c0-1.837-1.22-2.755-3.662-2.755-1.48 0-2.69.767-3.63 2.301v10.841M25.345 5.251c0 2.02 1.583 3.03 4.748 3.03v2.042c-5.218 0-7.827-1.723-7.827-5.17C22.266 1.718 25.237 0 31.179 0c5.575 0 8.362 1.718 8.362 5.153 0 3.447-2.426 5.17-7.276 5.17V8.28c2.776 0 4.175-1.01 4.197-3.03 0-2.129-1.761-3.193-5.283-3.193-3.89 0-5.834 1.064-5.834 3.193m22.38 9.787c-.39 0-.66.087-.81.26-.152.173-.228.432-.228.778 0 .4.087.675.26.826.173.14.432.21.778.21.4 0 .67-.091.81-.275.151-.183.227-.437.227-.761 0-.4-.087-.67-.26-.81-.172-.152-.432-.227-.777-.228m1.571 13.694c1.772 0 2.658-.902 2.658-2.706v-4.992h2.982v5.008c0 1.826.875 2.739 2.625 2.739 1.675 0 2.512-.919 2.512-2.755V12.818h2.982v13.208c0 3.424-1.853 5.137-5.559 5.137-1.599 0-2.95-.4-4.051-1.2-1.113.8-2.641 1.2-4.586 1.2-3.479 0-5.218-1.713-5.218-5.137 0-2.593.826-4.786 2.48-6.58-1.48-.4-2.22-1.453-2.22-3.16 0-2.679 1.241-4.019 3.726-4.019 2.55 0 3.825 1.189 3.825 3.566 0 1.48-1.253 3.684-3.76 6.611-.713.832-1.07 2.026-1.07 3.582 0 1.804.892 2.706 2.674 2.706M48.113 5.51c0 2.02 1.583 3.03 4.749 3.03v2.042c-5.218 0-7.828-1.723-7.828-5.17 0-3.435 2.971-5.153 8.913-5.153 5.575 0 8.362 1.718 8.362 5.154 0 1.285-.335 2.328-1.004 3.127h3.435v2.042h-9.707V8.54c2.787 0 4.186-1.01 4.197-3.03.011-2.128-1.75-3.193-5.283-3.193-3.889 0-5.834 1.065-5.834 3.193m27.258 22.752c-.011 1.21-.378 2.026-1.102 2.447-.724.432-1.923.648-3.598.648-2.614 0-3.922-1.76-3.922-5.283v-10.08c0-2.463 1.254-3.694 3.76-3.694 2.204 0 3.879.4 5.024 1.199l-1.135 1.912c-.864-.486-2.03-.729-3.5-.729-.778 0-1.167.427-1.167 1.28v11.911c.12-.55.39-1.075.81-1.572.433-.508 1.086-.762 1.961-.762 1.923 0 2.88.908 2.869 2.723m-2.917 1.15c.389 0 .653-.086.794-.259.151-.173.232-.432.243-.778 0-.389-.092-.659-.276-.81-.172-.151-.426-.227-.761-.227-.4 0-.675.087-.827.26-.14.172-.21.432-.21.777-.011.39.07.66.243.81.183.152.448.228.794.228m11.587-2.334c-.692 0-1.038.346-1.038 1.037 0 .692.346 1.037 1.038 1.037.69 0 1.037-.345 1.037-1.037 0-.691-.346-1.037-1.037-1.037m9.836 3.808V17.94c0-2.139-1.766-3.208-5.299-3.208-3.576 0-5.364 1.07-5.364 3.208v7c3.036 0 4.554 1.06 4.554 3.177 0 2.16-1.243 3.241-3.727 3.241-2.54 0-3.809-1.08-3.809-3.24v-10.6c0-2.203.773-3.624 2.318-4.261 1.555-.637 3.565-.956 6.028-.956 2.312 0 4.267.319 5.866.956 1.61.637 2.415 2.058 2.415 4.262v13.37h-2.982m13.45-14.861c.39 0 .66-.086.81-.26.152-.172.228-.431.228-.777 0-.39-.092-.654-.276-.794-.173-.151-.427-.232-.762-.243-.4-.011-.675.075-.826.259-.14.173-.21.432-.21.778 0 .389.086.659.259.81.172.151.432.227.777.227m-6.012 9.982c0-1.544.892-2.781 2.674-3.71-1.793-1.178-2.684-3.03-2.674-5.559.011-3.252 1.983-4.872 5.915-4.862 2.377.011 3.565 1.005 3.565 2.982 0 2.14-1.193 3.22-3.581 3.241-1.394.011-2.382-.718-2.966-2.187.022 2.041.519 3.446 1.491 4.213.703.562 1.832.778 3.387.648v2.61l-2.285.372c-1.588.26-2.382.994-2.382 2.204 0 1.815 2.134 2.755 6.401 2.82 4.106.064 6.158-2.312 6.158-7.13v-9.319H120v9.318c0 6.353-3.047 9.524-9.14 9.513-6.363-.011-9.545-1.729-9.545-5.154"/></svg>
